apps/scalable/dvdrip.svg

<svg xmlns="http://www.w3.org/2000/svg" style="isolation:isolate" width="256" height="256"><defs><filter id="a" width="270.648" height="254.338" x="-7.32" y="2.95" filterUnits="userSpaceOnUse"><feGaussianBlur xmlns="http://www.w3.org/2000/svg" in="SourceGraphic" stdDeviation="4.294"/><feOffset xmlns="http://www.w3.org/2000/svg" dy="4" result="pf_100_offsetBlur"/><feFlood xmlns="http://www.w3.org/2000/svg" flood-opacity=".4"/><feComposite xmlns="http://www.w3.org/2000/svg" in2="pf_100_offsetBlur" operator="in" result="pf_100_dropShadow"/><feBlend xmlns="http://www.w3.org/2000/svg" in="SourceGraphic" in2="pf_100_dropShadow"/></filter></defs><path fill="#5D5D5D" d="M165.685 11.947c74.055 0 84.639 10.557 84.639 84.544v59.251c0 73.986-10.584 84.543-84.639 84.543h-75.37c-74.055 0-84.639-10.557-84.639-84.543V96.491c0-73.987 10.584-84.544 84.639-84.544h75.37z" filter="url(#a)"/><g opacity=".4"><linearGradient id="b" x1=".517" x2=".517" y2="1"><stop offset="0%" stop-color="#fff"/><stop offset="12.5%" stop-opacity=".098" stop-color="#fff"/><stop offset="92.5%" stop-opacity=".098"/><stop offset="100%" stop-opacity=".498"/></linearGradient><path fill="none" stroke="url(#b)" stroke-linecap="round" stroke-linejoin="round" stroke-width="4.077" d="M165.685 11.947c74.055 0 84.639 10.557 84.639 84.544v59.251c0 73.986-10.584 84.543-84.639 84.543h-75.37c-74.055 0-84.639-10.557-84.639-84.543V96.491c0-73.987 10.584-84.544 84.639-84.544h75.37z" vector-effect="non-scaling-stroke"/></g><path fill="#FFF" d="M5.676 126.116v29.626c0 73.986 10.584 84.543 84.639 84.543h75.37c74.055 0 84.639-10.557 84.639-84.543v-29.626H5.676z" opacity=".1"/><linearGradient id="c" x1=".234" x2=".754" y1=".165" y2=".825" gradientTransform="matrix(165 0 0 165 45.5 43.5)" gradientUnits="userSpaceOnUse"><stop offset="0%" stop-color="#dedbde"/><stop offset="50%" stop-color="#e6e6e6"/><stop offset="100%" stop-color="#d2d2d2"/></linearGradient><path fill="url(#c)" d="M210.5 126c0-45.729-36.771-82.5-82.5-82.5S45.5 80.271 45.5 126s36.771 82.5 82.5 82.5 82.5-36.771 82.5-82.5zm-52.317 0c0 16.613-13.237 30.183-30.183 30.183-17.278 0-30.183-13.906-30.183-30.183 0-16.61 12.24-30.183 30.183-30.183 17.943 0 30.183 13.902 30.183 30.183z"/><defs><filter id="d" width="171" height="75.333" x="42" y="161.5" filterUnits="userSpaceOnUse"><feGaussianBlur xmlns="http://www.w3.org/2000/svg" in="SourceGraphic" stdDeviation="4.294"/><feOffset xmlns="http://www.w3.org/2000/svg" dy="4" result="pf_100_offsetBlur"/><feFlood xmlns="http://www.w3.org/2000/svg" flood-opacity=".4"/><feComposite xmlns="http://www.w3.org/2000/svg" in2="pf_100_offsetBlur" operator="in" result="pf_100_dropShadow"/><feBlend xmlns="http://www.w3.org/2000/svg" in="SourceGraphic" in2="pf_100_dropShadow"/></filter></defs><path d="M63.311 170.5h128.378a8.315 8.315 0 0 1 8.311 8.311v32.712c0 4.586-3.724 8.31-8.311 8.31H63.311c-4.587 0-8.311-3.724-8.311-8.31v-32.712a8.315 8.315 0 0 1 8.311-8.311z" fill="#37a6e6" filter="url(#d)"/><path fill="#F7F7F7" fill-rule="evenodd" d="M125.295 206.845h-5.517v-21.689h5.517v1.91q1.146-2.42 4.033-2.42 2.419 0 4.414 1.656l-.764 5.05q-1.783-1.273-3.948-1.273-3.735 0-3.735 4.669v12.097zm15.068-24.236q-1.316 0-2.271-.955-.955-.955-.955-2.271 0-1.315.934-2.249.934-.934 2.292-.934 1.358 0 2.292.913.934.912.934 2.27 0 1.359-.934 2.292-.934.934-2.292.934zm2.759 24.236h-5.518v-21.689h5.518v21.689zm16.553.509q-2.971 0-4.626-2.08v7.555l-5.518 2.504v-30.177h5.518v1.57q1.655-2.08 4.668-2.08 4.075 0 6.516 2.993 2.44 2.992 2.44 8.382 0 5.221-2.504 8.277-2.504 3.056-6.494 3.056zm-.849-5.306q2.08 0 3.205-1.57 1.124-1.57 1.124-4.457 0-2.801-1.124-4.435-1.125-1.634-3.205-1.634-2.462 0-3.777 1.74v8.574q1.103 1.782 3.777 1.782zm-65.64-9.825q-1.039.997-2.567.997-1.528 0-2.547-.997-1.019-.998-1.019-2.483 0-1.486 1.019-2.505 1.019-1.018 2.547-1.018 1.528 0 2.567 1.018 1.04 1.019 1.04 2.505 0 1.485-1.04 2.483zm0 14.133q-1.039.998-2.567.998-1.528 0-2.547-.998-1.019-.997-1.019-2.483 0-1.485 1.019-2.504 1.019-1.018 2.547-1.018 1.528 0 2.567 1.018 1.04 1.019 1.04 2.504 0 1.486-1.04 2.483zm10.229-14.133q-1.039.997-2.567.997-1.528 0-2.547-.997-1.019-.998-1.019-2.483 0-1.486 1.019-2.505 1.019-1.018 2.547-1.018 1.528 0 2.567 1.018 1.04 1.019 1.04 2.505 0 1.485-1.04 2.483zm0 14.133q-1.039.998-2.567.998-1.528 0-2.547-.998-1.019-.997-1.019-2.483 0-1.485 1.019-2.504 1.019-1.018 2.547-1.018 1.528 0 2.567 1.018 1.04 1.019 1.04 2.504 0 1.486-1.04 2.483z"/></svg>

<svg xmlns="http://www.w3.org/2000/svg" style="isolation:isolate" width="256" height="256" viewBox="0 0 256 256">
 <defs>
  <filter id="2CvoDrimfCdxl06OMEB8AcgQeJzn3mpq" width="270.648" height="254.338" x="-7.32" y="2.95" filterUnits="userSpaceOnUse">
   <feGaussianBlur xmlns="http://www.w3.org/2000/svg" in="SourceGraphic" stdDeviation="4.294"/>
   <feOffset xmlns="http://www.w3.org/2000/svg" dx="0" dy="4" result="pf_100_offsetBlur"/>
   <feFlood xmlns="http://www.w3.org/2000/svg" flood-opacity=".4"/>
   <feComposite xmlns="http://www.w3.org/2000/svg" in2="pf_100_offsetBlur" operator="in" result="pf_100_dropShadow"/>
   <feBlend xmlns="http://www.w3.org/2000/svg" in="SourceGraphic" in2="pf_100_dropShadow" mode="normal"/>
  </filter>
 </defs>
 <g filter="url(#2CvoDrimfCdxl06OMEB8AcgQeJzn3mpq)">
  <path fill="#5D5D5D" d="M 165.685 11.947 C 239.74 11.947 250.324 22.504 250.324 96.491 L 250.324 155.742 C 250.324 229.728 239.74 240.285 165.685 240.285 L 90.315 240.285 C 16.26 240.285 5.676 229.728 5.676 155.742 L 5.676 96.491 C 5.676 22.504 16.26 11.947 90.315 11.947 L 165.685 11.947 Z"/>
 </g>
 <g opacity=".4">
  <linearGradient id="_lgradient_11" x1=".517" x2=".517" y1="0" y2="1">
   <stop offset="0%" style="stop-color:rgb(255,255,255)"/>
   <stop offset="12.5%" stop-opacity=".098" style="stop-color:rgb(255,255,255)"/>
   <stop offset="92.5%" stop-opacity=".098" style="stop-color:rgb(0,0,0)"/>
   <stop offset="100%" stop-opacity=".498" style="stop-color:rgb(0,0,0)"/>
  </linearGradient>
  <path fill="none" stroke="url(#_lgradient_11)" stroke-linecap="round" stroke-linejoin="round" stroke-width="4.077" d="M 165.685 11.947 C 239.74 11.947 250.324 22.504 250.324 96.491 L 250.324 155.742 C 250.324 229.728 239.74 240.285 165.685 240.285 L 90.315 240.285 C 16.26 240.285 5.676 229.728 5.676 155.742 L 5.676 96.491 C 5.676 22.504 16.26 11.947 90.315 11.947 L 165.685 11.947 Z" vector-effect="non-scaling-stroke"/>
 </g>
 <g opacity=".1">
  <path fill="#FFFFFF" d="M 5.676 126.116 L 5.676 155.742 C 5.676 229.728 16.26 240.285 90.315 240.285 L 165.685 240.285 C 239.74 240.285 250.324 229.728 250.324 155.742 L 250.324 126.116 L 5.676 126.116 Z"/>
 </g>
 <linearGradient id="_lgradient_12" x1=".234" x2=".754" y1=".165" y2=".825" gradientTransform="matrix(165,0,0,165,45.5,43.5)" gradientUnits="userSpaceOnUse">
  <stop offset="0%" style="stop-color:rgb(222,219,222)"/>
  <stop offset="50%" style="stop-color:rgb(230,230,230)"/>
  <stop offset="100%" style="stop-color:rgb(210,210,210)"/>
 </linearGradient>
 <path fill="url(#_lgradient_12)" d="M 210.5 126 C 210.5 80.271 173.729 43.5 128 43.5 C 82.271 43.5 45.5 80.271 45.5 126 C 45.5 171.729 82.271 208.5 128 208.5 C 173.729 208.5 210.5 171.729 210.5 126 Z M 158.183 126 C 158.183 142.613 144.946 156.183 128 156.183 C 110.722 156.183 97.817 142.277 97.817 126 C 97.817 109.39 110.057 95.817 128 95.817 C 145.943 95.817 158.183 109.719 158.183 126 Z"/>
 <defs>
  <filter id="U5vU0knfR2CRbxKR095hodxvBlxAdTLh" width="171" height="75.333" x="42" y="161.5" filterUnits="userSpaceOnUse">
   <feGaussianBlur xmlns="http://www.w3.org/2000/svg" in="SourceGraphic" stdDeviation="4.294"/>
   <feOffset xmlns="http://www.w3.org/2000/svg" dx="0" dy="4" result="pf_100_offsetBlur"/>
   <feFlood xmlns="http://www.w3.org/2000/svg" flood-opacity=".4"/>
   <feComposite xmlns="http://www.w3.org/2000/svg" in2="pf_100_offsetBlur" operator="in" result="pf_100_dropShadow"/>
   <feBlend xmlns="http://www.w3.org/2000/svg" in="SourceGraphic" in2="pf_100_dropShadow" mode="normal"/>
  </filter>
 </defs>
 <g filter="url(#U5vU0knfR2CRbxKR095hodxvBlxAdTLh)">
  <path d="M 63.311 170.5 L 191.689 170.5 C 196.276 170.5 200 174.224 200 178.811 L 200 211.523 C 200 216.109 196.276 219.833 191.689 219.833 L 63.311 219.833 C 58.724 219.833 55 216.109 55 211.523 L 55 178.811 C 55 174.224 58.724 170.5 63.311 170.5 Z" style="fill:#37A6E6"/>
 </g>
 <path fill="#F7F7F7" fill-rule="evenodd" d="M 125.295 206.845 L 119.778 206.845 L 119.778 185.156 L 125.295 185.156 L 125.295 187.066 L 125.295 187.066 Q 126.441 184.646 129.328 184.646 L 129.328 184.646 L 129.328 184.646 Q 131.747 184.646 133.742 186.302 L 133.742 186.302 L 132.978 191.352 L 132.978 191.352 Q 131.195 190.079 129.03 190.079 L 129.03 190.079 L 129.03 190.079 Q 125.295 190.079 125.295 194.748 L 125.295 194.748 L 125.295 206.845 Z M 140.363 182.609 L 140.363 182.609 L 140.363 182.609 Q 139.047 182.609 138.092 181.654 L 138.092 181.654 L 138.092 181.654 Q 137.137 180.699 137.137 179.383 L 137.137 179.383 L 137.137 179.383 Q 137.137 178.068 138.071 177.134 L 138.071 177.134 L 138.071 177.134 Q 139.005 176.2 140.363 176.2 L 140.363 176.2 L 140.363 176.2 Q 141.721 176.2 142.655 177.113 L 142.655 177.113 L 142.655 177.113 Q 143.589 178.025 143.589 179.383 L 143.589 179.383 L 143.589 179.383 Q 143.589 180.742 142.655 181.675 L 142.655 181.675 L 142.655 181.675 Q 141.721 182.609 140.363 182.609 Z M 143.122 206.845 L 137.604 206.845 L 137.604 185.156 L 143.122 185.156 L 143.122 206.845 Z M 159.675 207.354 L 159.675 207.354 L 159.675 207.354 Q 156.704 207.354 155.049 205.274 L 155.049 205.274 L 155.049 212.829 L 149.531 215.333 L 149.531 185.156 L 155.049 185.156 L 155.049 186.726 L 155.049 186.726 Q 156.704 184.646 159.717 184.646 L 159.717 184.646 L 159.717 184.646 Q 163.792 184.646 166.233 187.639 L 166.233 187.639 L 166.233 187.639 Q 168.673 190.631 168.673 196.021 L 168.673 196.021 L 168.673 196.021 Q 168.673 201.242 166.169 204.298 L 166.169 204.298 L 166.169 204.298 Q 163.665 207.354 159.675 207.354 Z M 158.826 202.048 L 158.826 202.048 L 158.826 202.048 Q 160.906 202.048 162.031 200.478 L 162.031 200.478 L 162.031 200.478 Q 163.155 198.908 163.155 196.021 L 163.155 196.021 L 163.155 196.021 Q 163.155 193.22 162.031 191.586 L 162.031 191.586 L 162.031 191.586 Q 160.906 189.952 158.826 189.952 L 158.826 189.952 L 158.826 189.952 Q 156.364 189.952 155.049 191.692 L 155.049 191.692 L 155.049 200.266 L 155.049 200.266 Q 156.152 202.048 158.826 202.048 Z M 93.186 192.223 L 93.186 192.223 L 93.186 192.223 Q 92.147 193.22 90.619 193.22 L 90.619 193.22 L 90.619 193.22 Q 89.091 193.22 88.072 192.223 L 88.072 192.223 L 88.072 192.223 Q 87.053 191.225 87.053 189.74 L 87.053 189.74 L 87.053 189.74 Q 87.053 188.254 88.072 187.235 L 88.072 187.235 L 88.072 187.235 Q 89.091 186.217 90.619 186.217 L 90.619 186.217 L 90.619 186.217 Q 92.147 186.217 93.186 187.235 L 93.186 187.235 L 93.186 187.235 Q 94.226 188.254 94.226 189.74 L 94.226 189.74 L 94.226 189.74 Q 94.226 191.225 93.186 192.223 Z M 93.186 206.356 L 93.186 206.356 L 93.186 206.356 Q 92.147 207.354 90.619 207.354 L 90.619 207.354 L 90.619 207.354 Q 89.091 207.354 88.072 206.356 L 88.072 206.356 L 88.072 206.356 Q 87.053 205.359 87.053 203.873 L 87.053 203.873 L 87.053 203.873 Q 87.053 202.388 88.072 201.369 L 88.072 201.369 L 88.072 201.369 Q 89.091 200.351 90.619 200.351 L 90.619 200.351 L 90.619 200.351 Q 92.147 200.351 93.186 201.369 L 93.186 201.369 L 93.186 201.369 Q 94.226 202.388 94.226 203.873 L 94.226 203.873 L 94.226 203.873 Q 94.226 205.359 93.186 206.356 Z M 103.415 192.223 L 103.415 192.223 L 103.415 192.223 Q 102.376 193.22 100.848 193.22 L 100.848 193.22 L 100.848 193.22 Q 99.32 193.22 98.301 192.223 L 98.301 192.223 L 98.301 192.223 Q 97.282 191.225 97.282 189.74 L 97.282 189.74 L 97.282 189.74 Q 97.282 188.254 98.301 187.235 L 98.301 187.235 L 98.301 187.235 Q 99.32 186.217 100.848 186.217 L 100.848 186.217 L 100.848 186.217 Q 102.376 186.217 103.415 187.235 L 103.415 187.235 L 103.415 187.235 Q 104.455 188.254 104.455 189.74 L 104.455 189.74 L 104.455 189.74 Q 104.455 191.225 103.415 192.223 Z M 103.415 206.356 L 103.415 206.356 L 103.415 206.356 Q 102.376 207.354 100.848 207.354 L 100.848 207.354 L 100.848 207.354 Q 99.32 207.354 98.301 206.356 L 98.301 206.356 L 98.301 206.356 Q 97.282 205.359 97.282 203.873 L 97.282 203.873 L 97.282 203.873 Q 97.282 202.388 98.301 201.369 L 98.301 201.369 L 98.301 201.369 Q 99.32 200.351 100.848 200.351 L 100.848 200.351 L 100.848 200.351 Q 102.376 200.351 103.415 201.369 L 103.415 201.369 L 103.415 201.369 Q 104.455 202.388 104.455 203.873 L 104.455 203.873 L 104.455 203.873 Q 104.455 205.359 103.415 206.356 Z"/>
</svg>
